img/svg/16/net/amaya.svg

<svg xmlns="http://www.w3.org/2000/svg" viewBox="0 0 16 16" enable-background="new 0 0 16 16"><path d="M9.458 1l-5.833 14h-2.625l8.458-14zm-2.625 7.292l1.459 1.458 5.25-.875-3.208-1.75-3.501 1.167zm2.917-7l.875 3.5 2.042 1.75-.292-3.5-2.625-1.75zm2.625 10.208h.875v-2.042h-.583l-.292 2.042zm-1.75 2.042l.292-.875.875 1.167h.583l.875-.583v.583h1.75l-.583-2.042h-1.167l-.875.875-.292-.875h-1.458l-1.167 1.75h1.167z" fill="#ccc"/></svg>

<svg xmlns="http://www.w3.org/2000/svg" viewBox="0 0 16 16"><path fill="#ccc" d="M9.458 1 3.625 15H1L9.458 1zM6.833 8.292 8.292 9.75l5.25-.875-3.208-1.75-3.501 1.167zm2.917-7 .875 3.5 2.042 1.75-.292-3.5-2.625-1.75zM12.375 11.5h.875V9.458h-.583l-.292 2.042zm-1.75 2.042.292-.875.875 1.167h.583l.875-.583v.583H15l-.583-2.042H13.25l-.875.875-.292-.875h-1.458l-1.167 1.75h1.167z"/></svg>
